svg/hasura.svg

<svg xmlns="http://www.w3.org/2000/svg" width="81" height="84" fill="none" viewBox="0 0 81 84"><g clip-path="url(#clip0_5273_21928)"><path fill="#1EB4D4" d="M79.7186 28.6019C82.1218 21.073 80.6778 6.03601 76.0158 0.487861C75.4073 -0.238064 74.2624 -0.134361 73.757 0.664158L68.0121 9.72786C66.5887 11.5427 64.0308 11.9575 62.1124 10.6923C55.8827 6.59601 48.4359 4.21082 40.4322 4.21082C32.4285 4.21082 24.9817 6.59601 18.752 10.6923C16.8336 11.9575 14.2757 11.5323 12.8523 9.72786L7.10738 0.664158C6.60199 -0.134361 5.45712 -0.238064 4.84859 0.487861C0.186621 6.03601 -1.25735 21.073 1.14583 28.6019C1.94002 31.1012 2.16693 33.7456 1.69248 36.3279C1.22834 38.879 0.753897 41.9693 0.753897 44.1056C0.753897 66.1323 18.5251 84.0004 40.4322 84.0004C62.3497 84.0004 80.1105 66.1427 80.1105 44.1056C80.1105 41.959 79.6464 38.879 79.1719 36.3279C78.6975 33.7456 78.9244 31.1012 79.7186 28.6019ZM40.4322 75.0819C23.4965 75.0819 9.71684 61.2271 9.71684 44.199C9.71684 43.639 9.73747 43.0893 9.7581 42.5397C10.3769 30.9353 17.3802 21.0108 27.3024 16.2819C31.2836 14.3738 35.7393 13.316 40.4322 13.316C45.1251 13.316 49.5808 14.3842 53.5724 16.2923C63.4945 21.0212 70.4978 30.9456 71.1166 42.5397C71.1476 43.0893 71.1579 43.639 71.1579 44.199C71.1476 61.2271 57.3679 75.0819 40.4322 75.0819Z"/><path fill="#1EB4D4" d="M53.7371 56.083L45.8881 42.4044L39.153 30.997C38.9983 30.7274 38.7095 30.5615 38.3898 30.5615H31.9538C31.634 30.5615 31.3452 30.7378 31.1905 31.0074C31.0358 31.2874 31.0358 31.6296 31.2008 31.8993L37.6368 42.7881L28.9936 56.0415C28.8183 56.3111 28.7977 56.6637 28.9524 56.9541C29.1071 57.2444 29.4062 57.4207 29.7259 57.4207H36.2032C36.5023 57.4207 36.7808 57.2652 36.9458 57.0163L41.6181 49.6741L45.8056 56.9748C45.9603 57.2548 46.2594 57.4207 46.5688 57.4207H52.9533C53.273 57.4207 53.5618 57.2548 53.7165 56.9748C53.9022 56.6948 53.9022 56.363 53.7371 56.083Z"/></g><defs><clipPath id="clip0_5273_21928"><rect width="81" height="84" fill="#fff"/></clipPath></defs></svg>

<svg xmlns="http://www.w3.org/2000/svg" width="81" height="84" fill="none"><g fill="#1EB4D4" clip-path="url(#a)"><path d="M79.719 28.602c2.403-7.529.959-22.566-3.703-28.114-.609-.726-1.754-.622-2.259.176l-5.745 9.064a4.403 4.403 0 0 1-5.9.964 39.32 39.32 0 0 0-21.68-6.481 39.32 39.32 0 0 0-21.68 6.481 4.414 4.414 0 0 1-5.9-.964L7.107.664C6.602-.134 5.457-.238 4.85.488.187 6.036-1.257 21.073 1.146 28.602c.794 2.5 1.02 5.144.546 7.726-.464 2.551-.938 5.641-.938 7.778C.754 66.132 18.525 84 40.432 84c21.918 0 39.679-17.857 39.679-39.894 0-2.147-.465-5.227-.94-7.778-.474-2.582-.247-5.227.548-7.726m-39.287 46.48c-16.935 0-30.715-13.855-30.715-30.883 0-.56.02-1.11.041-1.66.619-11.604 7.622-21.528 17.544-26.257a30.3 30.3 0 0 1 13.13-2.966c4.693 0 9.149 1.068 13.14 2.976 9.923 4.73 16.926 14.654 17.545 26.248.03.55.04 1.099.04 1.659-.01 17.028-13.79 30.883-30.725 30.883"/><path d="m53.737 56.083-7.849-13.679-6.735-11.407a.87.87 0 0 0-.763-.436h-6.436A.883.883 0 0 0 31.2 31.9l6.436 10.89-8.643 13.252a.9.9 0 0 0-.042.913c.155.29.454.467.774.467h6.477c.3 0 .578-.156.743-.405l4.672-7.342 4.188 7.3c.154.28.453.447.763.447h6.384c.32 0 .609-.166.764-.446a.82.82 0 0 0 .02-.892"/></g><defs><clipPath id="a"><path fill="#fff" d="M0 0h81v84H0z"/></clipPath></defs></svg>
